X: 539
T: Tom Steele
C: anon.
O: Ireland
B: Francis O'Neill: "The Dance Music of Ireland" (1907) no. 539
R: Reel
Z: Transcribed by Frank Nordberg - http://www.musicaviva.com
F: http://www.musicaviva.com/abc/tunes/ireland/oneill-1001/oneill-1001-053
9.abc
M: C
L: 1/8
K: D
d>D (3DDD F>A (3(ABc)|dfaf gfec|d>D (3DDD FA({e}d)c|BGEF GABc|d>D (3DDD F
>A (3(ABc)|
dfaf (3(gag) bg|afge fdec|BGEF GABc||d2(fd) adfd|(3(ded) af gfec|
d2(fd) adfd|BGEF GABc|d2(fd) adfd|(3(ded) af g2(fg)|(3(agf) (3(gfe) fdec|
BGEF GABc|]
W:
W:
W: From Musica Viva - http://www.musicaviva.com
W: the Internet center for free sheet music downloads.


